%% Do not edit, this file has been generated
%% automatically by kalman_note.tex via gmp.sty

outputtemplate:= "%j.mps";
beginfig(1);
draw ((0,0) -- (0,2) -- (1,3.25) -- (2,2) -- (2.0) -- (0,2) -- (2,2) -- (0,0) -- (2,0)) scaled 1cm;
 
endfig;
end.
